X: 1
T: John Howat's Strathspey
C: H. Dunlop
R: strathspey
M: 4/4
L: 1/8
K: D
a \
| "D"f>d d>A "A7"G>F E>D | "D"((3FGA) A,>D "A7"E>F G>a \
| "D"f>d d>A "A7"G>F E>D | "A7"C>E A,>E "D"D2 D :|
A \
| "D"d>e f>g a>d f2 | "A7"e>A f>A g>A e>A \
| "D"d>e f>g a>b a2 | "G"((3Bcd) "A7"((3efg) "D"f>d d |]
f \
| "D"d>e f>g a>d f2 | "A7"e>A f>A g>A e>A \
| "D"((3fed) "A"((3cde) "G"((3dcB) "D"((3AGF) | "A7"G>E C>E "D"FD D |]

